X:106
T:Gie the Lasses mair o'it
S:Museum for the German Flute
M:4/4
L:1/8
Q:1/4=120
K:D
F|A2A2  (d>ef>)e|(d<BA>F)       E>DEF |A2 A2  d>ef>e|(d<BA>F)      TE2D:|
f|a<ffb  a>fTed |(c/d/e/f/) g>e b>eg>e|a<ff>b afed  |(c/d/e/f/ g)f Te2d2|
  a<ff>b a>fTed |(c/d/e/f/  g)e b>eg>e|a>fe>d d>ef>e| d<B     TA>F TE2D:|

